svgs/sharp-solid/table-cells.svg

<svg xmlns="http://www.w3.org/2000/svg" viewBox="0 0 512 512"><!--! Font Awesome Pro 6.6.0 by @fontawesome - https://fontawesome.com License - https://fontawesome.com/license (Commercial License) Copyright 2024 Fonticons, Inc. --><path d="M512 32L0 32 0 480l512 0 0-448zM152 96l0 64-88 0 0-64 88 0zm56 0l88 0 0 64-88 0 0-64zm240 0l0 64-88 0 0-64 88 0zM64 224l88 0 0 64-88 0 0-64zm232 0l0 64-88 0 0-64 88 0zm64 0l88 0 0 64-88 0 0-64zM152 352l0 64-88 0 0-64 88 0zm56 0l88 0 0 64-88 0 0-64zm240 0l0 64-88 0 0-64 88 0z"/></svg>

<svg xmlns="http://www.w3.org/2000/svg" viewBox="0 0 512 512"><!--! Font Awesome Pro 6.5.2 by @fontawesome - https://fontawesome.com License - https://fontawesome.com/license (Commercial License) Copyright 2024 Fonticons, Inc. --><path d="M512 32H0V480H512V32zM152 96v64H64V96h88zm56 0h88v64H208V96zm240 0v64H360V96h88zM64 224h88v64H64V224zm232 0v64H208V224h88zm64 0h88v64H360V224zM152 352v64H64V352h88zm56 0h88v64H208V352zm240 0v64H360V352h88z"/></svg>
